X:141
M:6/8
L:1/8
K:D
|:A2a A2g|A2f ecA|(f/g/a)f ecA|(f/g/a)f ecA|(B/c/d)B AFD|(B/c/d)B A2g|fed edc|d3 D3:|

